resources/svg/table-col-after.svg

<svg xmlns="http://www.w3.org/2000/svg" viewBox="0 0 14 14" fill="currentColor"><path d="M12,0 C13.1045695,0 14,0.8954305 14,2 L14,3 C14,3.55228475 13.5522847,4 13,4 C12.4477153,4 12,3.55228475 12,3 L12,2 L6,2 L6,12 L12,12 L12,11 C12,10.4477153 12.4477153,10 13,10 C13.5522847,10 14,10.4477153 14,11 L14,12 C14,13.1045695 13.1045695,14 12,14 L2,14 C0.8954305,14 0,13.1045695 0,12 L0,2 C0,0.8954305 0.8954305,0 2,0 L12,0 Z M4,10 L2,10 L2,12 L4,12 L4,10 Z M10,4 C10.5522847,4 11,4.44771525 11,5 L11,6 L12,6 C12.5522847,6 13,6.44771525 13,7 C13,7.55228475 12.5522847,8 12,8 L11,8 L11,9 C11,9.55228475 10.5522847,10 10,10 C9.44771525,10 9,9.55228475 9,9 L9,8 L8,8 C7.44771525,8 7,7.55228475 7,7 C7,6.44771525 7.44771525,6 8,6 L9,6 L9,5 C9,4.44771525 9.44771525,4 10,4 Z M4,6 L2,6 L2,8 L4,8 L4,6 Z M4,2 L2,2 L2,4 L4,4 L4,2 Z"/></svg>

<svg xmlns="http://www.w3.org/2000/svg" fill="currentColor" viewBox="0 0 14 14"><path d="M12 0a2 2 0 0 1 2 2v1a1 1 0 0 1-2 0V2H6v10h6v-1a1 1 0 0 1 2 0v1a2 2 0 0 1-2 2H2a2 2 0 0 1-2-2V2a2 2 0 0 1 2-2h10ZM4 10H2v2h2v-2Zm6-6a1 1 0 0 1 1 1v1h1a1 1 0 0 1 0 2h-1v1a1 1 0 0 1-2 0V8H8a1 1 0 1 1 0-2h1V5a1 1 0 0 1 1-1ZM4 6H2v2h2V6Zm0-4H2v2h2V2Z"/></svg>
